icons/1_Primary/1984 Hosting.svg

<svg width="1024" height="1024" fill="none" xmlns="http://www.w3.org/2000/svg"><g clip-path="url(#a)"><path d="M512 1024c282.77 0 512-229.23 512-512S794.77 0 512 0 0 229.23 0 512s229.23 512 512 512Z" fill="#56595B"/><path d="M328.85 420.411h-120a13.083 13.083 0 0 0-9.17 3.83 13.083 13.083 0 0 0-3.83 9.17v157.1a13.082 13.082 0 0 0 13 13h120a13.083 13.083 0 0 0 13-13v-157.06a13.083 13.083 0 0 0-13-13.04Zm-21.69 141.95h-66.24v-15.61h25.82v-60.6c-4.494 5.233-11.8 7.85-21.92 7.85h-3.9v-16.81h7.64c11.18 0 18.706-4 22.58-12h14.11v81.6h21.92l-.01 15.57Zm183.08-141.95h-120a13.083 13.083 0 0 0-9.17 3.83 13.083 13.083 0 0 0-3.83 9.17v157.1a13.082 13.082 0 0 0 13 13h120a13.083 13.083 0 0 0 13-13v-157.06a13.083 13.083 0 0 0-13-13.04Zm-31.42 131.16c-7.334 8.426-17.134 12.64-29.4 12.64-10.714 0-19.334-2.824-25.86-8.47-6.527-5.647-10.01-13.17-10.45-22.57h18.57a16.335 16.335 0 0 0 4.87 11.18c3.026 3.006 7.483 4.51 13.37 4.51 6.826 0 11.92-2.434 15.28-7.3 3.36-4.867 5.26-12.92 5.7-24.16-6.054 5.506-14.077 8.26-24.07 8.26a39.904 39.904 0 0 1-14.78-2.59 28.22 28.22 0 0 1-10.58-7 30.11 30.11 0 0 1-6.12-9.93 33.31 33.31 0 0 1-2.08-11.81c0-9.234 3.333-16.757 10-22.57 6.666-5.814 15.23-8.72 25.69-8.72 4.303-.033 8.59.529 12.74 1.67a35.329 35.329 0 0 1 11.2 5.51 34.798 34.798 0 0 1 9 9.6 48.88 48.88 0 0 1 5.83 14.52 82.704 82.704 0 0 1 2.17 19.78c-.054 16.54-3.747 29.023-11.08 37.45Zm-15.49-67.47c3.553 3.893 5.913 10.513 7.08 19.86a34.88 34.88 0 0 1-20.65 6.43c-5.494 0-9.77-1.447-12.83-4.34-3.06-2.894-4.587-6.787-4.58-11.68a15.337 15.337 0 0 1 4.65-11.69c3.22-2.947 7.356-4.42 12.41-4.42a17.993 17.993 0 0 1 13.92 5.84Zm130.32 8.16c0-4.914 1.773-8.58 5.32-11a25.489 25.489 0 0 1 26.12 0c3.546 2.4 5.32 6.066 5.32 11a12.007 12.007 0 0 1-2.76 8.08 14.78 14.78 0 0 1-6.74 4.52 28.666 28.666 0 0 1-8.92 1.3 23.518 23.518 0 0 1-13-3.43c-3.554-2.294-5.33-5.784-5.33-10.47h-.01Zm38.93 42a12.09 12.09 0 0 1-5.78 10.88c-3.854 2.453-8.737 3.68-14.65 3.68-5.914 0-10.84-1.227-14.78-3.68a11.996 11.996 0 0 1-5.9-10.88c0-5.027 1.94-8.74 5.82-11.14 3.88-2.4 8.833-3.6 14.86-3.6 6 0 10.91 1.2 14.73 3.6 3.82 2.4 5.723 6.12 5.71 11.16l-.01-.02Zm40.49-113.87H533a13.083 13.083 0 0 0-9.17 3.83 13.083 13.083 0 0 0-3.83 9.17v157.1a13.082 13.082 0 0 0 13 13h120a13.083 13.083 0 0 0 13-13v-157.04a13.079 13.079 0 0 0-12.93-13.04v-.02Zm-24.53 127.96a25.284 25.284 0 0 1-9 8.87 47.19 47.19 0 0 1-12.68 5.11 63.683 63.683 0 0 1-29.72 0 47.176 47.176 0 0 1-12.68-5.11 25.268 25.268 0 0 1-9-8.87 23.813 23.813 0 0 1-3.31-12.47c0-6.194 1.563-11.104 4.69-14.73a30.395 30.395 0 0 1 12.14-8.46c-9.714-4.667-14.57-11.754-14.57-21.26a27.035 27.035 0 0 1 2.14-10.93 23.805 23.805 0 0 1 5.69-8.16 31.947 31.947 0 0 1 8.41-5.48 43.984 43.984 0 0 1 10.17-3.22 61.7 61.7 0 0 1 22.19 0 44.783 44.783 0 0 1 10.21 3.22 31.8 31.8 0 0 1 8.46 5.48 23.832 23.832 0 0 1 5.69 8.16 27.083 27.083 0 0 1 2.13 10.93c0 9.486-4.857 16.573-14.57 21.26a29.004 29.004 0 0 1 12.06 8.46c3.18 3.573 4.77 8.483 4.77 14.73a23.824 23.824 0 0 1-3.22 12.47Zm101.82-24.15 28.58-34.38v34.38h-28.58Zm84.83-103.78h-120a13.083 13.083 0 0 0-9.17 3.83 13.083 13.083 0 0 0-3.83 9.17v157.1a13.082 13.082 0 0 0 13 13h120a13.083 13.083 0 0 0 13-13v-157.07a13.083 13.083 0 0 0-13-13.04v.01Zm-21.79 119.16H777v23.2h-18.06v-23.2h-50.77v-11.94l52.53-63.29H777v59.85h16.4v15.38Z" fill="#fff"/></g><defs><clipPath id="a"><path fill="#fff" d="M0 0h1024v1024H0z"/></clipPath></defs></svg>

<svg width="1024" height="1024" viewBox="0 0 1024 1024" fill="none" xmlns="http://www.w3.org/2000/svg">
<g clip-path="url(#clip0_2_1428)">
<path d="M512 1024C794.77 1024 1024 794.77 1024 512C1024 229.23 794.77 0 512 0C229.23 0 0 229.23 0 512C0 794.77 229.23 1024 512 1024Z" fill="#56595B"/>
<path d="M328.85 420.411H208.85C205.408 420.432 202.114 421.808 199.68 424.241C197.247 426.675 195.871 429.969 195.85 433.411V590.511C195.871 593.952 197.247 597.246 199.68 599.68C202.114 602.113 205.408 603.49 208.85 603.511H328.85C332.291 603.49 335.585 602.113 338.019 599.68C340.452 597.246 341.829 593.952 341.85 590.511V433.451C341.839 430.002 340.467 426.698 338.033 424.256C335.598 421.814 332.298 420.432 328.85 420.411ZM307.16 562.361H240.92V546.751H266.74V486.151C262.246 491.384 254.94 494.001 244.82 494.001H240.92V477.191H248.56C259.74 477.191 267.266 473.191 271.14 465.191H285.25V546.791H307.17L307.16 562.361ZM490.24 420.411H370.24C366.798 420.432 363.504 421.808 361.07 424.241C358.637 426.675 357.261 429.969 357.24 433.411V590.511C357.261 593.952 358.637 597.246 361.07 599.68C363.504 602.113 366.798 603.49 370.24 603.511H490.24C493.681 603.49 496.975 602.113 499.409 599.68C501.842 597.246 503.219 593.952 503.24 590.511V433.451C503.229 430.002 501.857 426.698 499.423 424.256C496.988 421.814 493.688 420.432 490.24 420.411ZM458.82 551.571C451.486 559.997 441.686 564.211 429.42 564.211C418.706 564.211 410.086 561.387 403.56 555.741C397.033 550.094 393.55 542.571 393.11 533.171H411.68C411.799 537.386 413.544 541.392 416.55 544.351C419.576 547.357 424.033 548.861 429.92 548.861C436.746 548.861 441.84 546.427 445.2 541.561C448.56 536.694 450.46 528.641 450.9 517.401C444.846 522.907 436.823 525.661 426.83 525.661C421.783 525.74 416.768 524.861 412.05 523.071C408.037 521.57 404.419 519.177 401.47 516.071C398.802 513.191 396.723 509.818 395.35 506.141C393.948 502.362 393.243 498.361 393.27 494.331C393.27 485.097 396.603 477.574 403.27 471.761C409.936 465.947 418.5 463.041 428.96 463.041C433.263 463.008 437.55 463.57 441.7 464.711C445.73 465.868 449.523 467.734 452.9 470.221C456.483 472.819 459.537 476.077 461.9 479.821C464.61 484.316 466.579 489.219 467.73 494.341C469.247 500.822 469.975 507.464 469.9 514.121C469.846 530.661 466.153 543.144 458.82 551.571ZM443.33 484.101C446.883 487.994 449.243 494.614 450.41 503.961C444.382 508.238 437.15 510.49 429.76 510.391C424.266 510.391 419.99 508.944 416.93 506.051C413.87 503.157 412.343 499.264 412.35 494.371C412.255 492.204 412.62 490.042 413.422 488.027C414.223 486.012 415.443 484.19 417 482.681C420.22 479.734 424.356 478.261 429.41 478.261C432.014 478.168 434.608 478.643 437.011 479.651C439.415 480.659 441.571 482.177 443.33 484.101ZM573.65 492.261C573.65 487.347 575.423 483.681 578.97 481.261C582.919 478.905 587.431 477.661 592.03 477.661C596.628 477.661 601.141 478.905 605.09 481.261C608.636 483.661 610.41 487.327 610.41 492.261C610.511 495.201 609.529 498.077 607.65 500.341C605.869 502.447 603.534 504.013 600.91 504.861C598.023 505.762 595.013 506.201 591.99 506.161C587.415 506.307 582.897 505.115 578.99 502.731C575.436 500.437 573.66 496.947 573.66 492.261H573.65ZM612.58 534.261C612.68 536.426 612.196 538.578 611.179 540.492C610.163 542.406 608.65 544.012 606.8 545.141C602.946 547.594 598.063 548.821 592.15 548.821C586.236 548.821 581.31 547.594 577.37 545.141C575.49 544.034 573.948 542.437 572.909 540.52C571.869 538.603 571.372 536.439 571.47 534.261C571.47 529.234 573.41 525.521 577.29 523.121C581.17 520.721 586.123 519.521 592.15 519.521C598.15 519.521 603.06 520.721 606.88 523.121C610.7 525.521 612.603 529.241 612.59 534.281L612.58 534.261ZM653.07 420.391H533C529.558 420.412 526.264 421.788 523.83 424.221C521.397 426.655 520.021 429.949 520 433.391V590.491C520.021 593.932 521.397 597.226 523.83 599.66C526.264 602.093 529.558 603.47 533 603.491H653C656.441 603.47 659.735 602.093 662.169 599.66C664.602 597.226 665.979 593.932 666 590.491V433.451C665.989 430.014 664.627 426.72 662.208 424.28C659.788 421.84 656.506 420.45 653.07 420.411V420.391ZM628.54 548.351C626.339 552.022 623.242 555.074 619.54 557.221C615.584 559.531 611.312 561.252 606.86 562.331C597.092 564.675 586.908 564.675 577.14 562.331C572.687 561.252 568.416 559.531 564.46 557.221C560.757 555.074 557.66 552.022 555.46 548.351C553.23 544.578 552.085 540.263 552.15 535.881C552.15 529.687 553.713 524.777 556.84 521.151C560.128 517.374 564.298 514.468 568.98 512.691C559.266 508.024 554.41 500.937 554.41 491.431C554.357 487.678 555.086 483.956 556.55 480.501C557.851 477.41 559.79 474.63 562.24 472.341C564.737 470.083 567.575 468.233 570.65 466.861C573.896 465.379 577.312 464.298 580.82 463.641C588.156 462.3 595.674 462.3 603.01 463.641C606.529 464.302 609.957 465.383 613.22 466.861C616.313 468.226 619.169 470.076 621.68 472.341C624.129 474.63 626.068 477.41 627.37 480.501C628.829 483.957 629.555 487.679 629.5 491.431C629.5 500.917 624.643 508.004 614.93 512.691C619.611 514.426 623.765 517.34 626.99 521.151C630.17 524.724 631.76 529.634 631.76 535.881C631.852 540.254 630.738 544.568 628.54 548.351ZM730.36 524.201L758.94 489.821V524.201H730.36ZM815.19 420.421H695.19C691.748 420.442 688.454 421.818 686.02 424.251C683.587 426.685 682.211 429.979 682.19 433.421V590.521C682.211 593.962 683.587 597.256 686.02 599.69C688.454 602.123 691.748 603.5 695.19 603.521H815.19C818.631 603.5 821.925 602.123 824.359 599.69C826.792 597.256 828.169 593.962 828.19 590.521V433.451C828.179 430.002 826.807 426.698 824.373 424.256C821.938 421.814 818.638 420.432 815.19 420.411V420.421ZM793.4 539.581H777V562.781H758.94V539.581H708.17V527.641L760.7 464.351H777V524.201H793.4V539.581Z" fill="white"/>
</g>
<defs>
<clipPath id="clip0_2_1428">
<rect width="1024" height="1024" fill="white"/>
</clipPath>
</defs>
</svg>
